X: 130144
T: Martin Wynne's #3
C: M. Wynne
Z: B.Black
R: reel
M: 4/4
L: 1/8
K: G
dged B2 Ac | BGdG EAAc | BGdB cdeg | fgaf gfge |
dged B2 Ac | BGdG EAAc | BGdB cdeg | fgaf g4 :|
gfga gfeB | dged BGBc | dggf gfeB | dega bgaf |
gfga gfeB | dged BGBc | dggf gfeg | fgaf g4 :|
